symbols/web/brightness_4/materialsymbolsrounded/brightness_4_gradN25fill1_48px.svg

<svg xmlns="http://www.w3.org/2000/svg" height="48" width="48"><path d="M17.45 39.75h-6.3q-1.2 0-2.05-.825-.85-.825-.85-2.025v-6.3L3.65 26q-.8-.8-.8-2t.8-2l4.6-4.6v-6.3q0-1.2.85-2.05.85-.85 2.05-.85h6.3l4.6-4.6q.8-.8 1.975-.8t2.075.85l4.55 4.55h6.3q1.15 0 2 .85.85.85.85 2.05v6.3l4.65 4.6q.8.8.8 1.975T44.45 26l-4.65 4.6v6.3q0 1.2-.85 2.025t-2 .825h-6.3l-4.5 4.45q-.9.85-2.075.85-1.175 0-2.025-.85Zm7.2-6.25q4 0 6.775-2.775Q34.2 27.95 34.2 24q0-3.95-2.775-6.7t-6.775-2.75q-.65 0-1.125.075t-.925.175q-.25.1-.425.325T22 15.55q0 .1.45.75 1.9 1.3 2.9 3.35t1 4.35q0 2.4-1.05 4.45-1.05 2.05-2.9 3.3-.15.05-.45.7 0 .3.2.5t.45.3q.6.15 1.1.2.5.05.95.05Z"/></svg>

<svg xmlns="http://www.w3.org/2000/svg" height="48" width="48"><path d="M17.45 39.75H11.15Q9.95 39.75 9.1 38.925Q8.25 38.1 8.25 36.9V30.6L3.65 26Q2.85 25.2 2.85 24Q2.85 22.8 3.65 22L8.25 17.4V11.1Q8.25 9.9 9.1 9.05Q9.95 8.2 11.15 8.2H17.45L22.05 3.6Q22.85 2.8 24.025 2.8Q25.2 2.8 26.1 3.65L30.65 8.2H36.95Q38.1 8.2 38.95 9.05Q39.8 9.9 39.8 11.1V17.4L44.45 22Q45.25 22.8 45.25 23.975Q45.25 25.15 44.45 26L39.8 30.6V36.9Q39.8 38.1 38.95 38.925Q38.1 39.75 36.95 39.75H30.65L26.15 44.2Q25.25 45.05 24.075 45.05Q22.9 45.05 22.05 44.2ZM24.65 33.5Q28.65 33.5 31.425 30.725Q34.2 27.95 34.2 24Q34.2 20.05 31.425 17.3Q28.65 14.55 24.65 14.55Q24 14.55 23.525 14.625Q23.05 14.7 22.6 14.8Q22.35 14.9 22.175 15.125Q22 15.35 22 15.55Q22 15.65 22.45 16.3Q24.35 17.6 25.35 19.65Q26.35 21.7 26.35 24Q26.35 26.4 25.3 28.45Q24.25 30.5 22.4 31.75Q22.25 31.8 21.95 32.45Q21.95 32.75 22.15 32.95Q22.35 33.15 22.6 33.25Q23.2 33.4 23.7 33.45Q24.2 33.5 24.65 33.5Z"/></svg>
